icons/1_Primary/Mastodon.svg

<svg width="1024" height="1024" viewBox="0 0 1024 1024" fill="none" xmlns="http://www.w3.org/2000/svg">
<g clip-path="url(#clip0_2_2766)">
<path d="M512 1024C794.77 1024 1024 794.77 1024 512C1024 229.23 794.77 0 512 0C229.23 0 0 229.23 0 512C0 794.77 229.23 1024 512 1024Z" fill="#ABABFF"/>
<path d="M748.81 388.46C741.45 334.28 693.81 291.57 637.34 283.29C627.8 281.88 591.69 276.8 508.06 276.8H507.43C423.78 276.8 405.81 281.89 396.29 283.29C341.37 291.29 291.23 329.72 279.06 384.55C273.24 411.55 272.61 441.55 273.68 468.95C275.24 508.34 275.53 547.66 279.14 586.88C281.608 612.939 285.952 638.786 292.14 664.22C303.7 711.22 350.5 750.35 396.38 766.3C445.51 782.945 498.279 785.713 548.88 774.3C554.447 773.02 559.954 771.527 565.4 769.82C577.7 765.95 592.09 761.62 602.68 753.99C602.821 753.884 602.938 753.749 603.021 753.594C603.104 753.438 603.151 753.266 603.16 753.09V715.09C603.16 714.924 603.122 714.761 603.05 714.612C602.977 714.462 602.871 714.332 602.74 714.23C602.603 714.117 602.44 714.04 602.266 714.003C602.092 713.967 601.912 713.972 601.74 714.02C569.301 721.695 536.074 725.537 502.74 725.47C445.36 725.47 429.96 698.47 425.52 687.26C421.973 677.558 419.72 667.431 418.82 657.14C418.811 656.966 418.844 656.792 418.915 656.632C418.986 656.473 419.093 656.333 419.229 656.222C419.364 656.112 419.523 656.036 419.694 655.999C419.865 655.962 420.041 655.966 420.21 656.01C452.098 663.638 484.772 667.491 517.56 667.49C525.46 667.49 533.32 667.49 541.2 667.28C574.2 666.36 608.96 664.67 641.41 658.41C642.21 658.24 643.03 658.09 643.72 657.91C694.9 648.16 743.61 617.56 748.57 540.13C748.74 537.13 749.2 508.18 749.2 505.03C749.36 494.24 752.83 428.71 748.81 388.46ZM670 581.71H616.22V451C616.22 423.49 604.66 409.47 581.12 409.47C555.27 409.47 542.32 426.07 542.32 458.86V530.38H488.81V458.87C488.81 426.08 475.81 409.48 449.97 409.48C426.6 409.48 414.91 423.48 414.87 451.03V581.71H361.13V447.08C361.13 419.547 368.214 397.69 382.38 381.51C397 365.32 416.18 357 440 357C467.55 357 488.38 367.51 502.25 388.48L515.66 410.76L529 388.52C542.87 367.52 563.68 357.04 591.21 357.04C614.96 357.04 634.15 365.34 648.8 381.5C662.987 397.68 670.077 419.537 670.07 447.07L670 581.71Z" fill="white"/>
</g>
<defs>
<clipPath id="clip0_2_2766">
<rect width="1024" height="1024" fill="white"/>
</clipPath>
</defs>
</svg>

<svg xmlns="http://www.w3.org/2000/svg" width="1024" height="1024" fill="none">
   <g clip-path="url(#a)">
      <path fill="#ABABFF" d="M512 1024c282.77 0 512-229.23 512-512S794.77 0 512 0 0 229.23 0 512s229.23 512 512 512Z"/>
      <path fill="#fff" d="M748.81 388.46c-7.36-54.18-55-96.89-111.47-105.17-9.54-1.41-45.65-6.49-129.28-6.49h-.63c-83.65 0-101.62 5.09-111.14 6.49-54.92 8-105.06 46.43-117.23 101.26-5.82 27-6.45 57-5.38 84.4 1.56 39.39 1.85 78.71 5.46 117.93a544.208 544.208 0 0 0 13 77.34c11.56 47 58.36 86.13 104.24 102.08a281.936 281.936 0 0 0 152.5 8 220.146 220.146 0 0 0 16.52-4.48c12.3-3.87 26.69-8.2 37.28-15.83a1.203 1.203 0 0 0 .48-.9v-38a1.098 1.098 0 0 0-.42-.86 1.105 1.105 0 0 0-1-.21 426.26 426.26 0 0 1-99 11.45c-57.38 0-72.78-27-77.22-38.21a117.543 117.543 0 0 1-6.7-30.12 1.112 1.112 0 0 1 1.39-1.13 418.386 418.386 0 0 0 97.35 11.48c7.9 0 15.76 0 23.64-.21 33-.92 67.76-2.61 100.21-8.87.8-.17 1.62-.32 2.31-.5 51.18-9.75 99.89-40.35 104.85-117.78.17-3 .63-31.95.63-35.1.16-10.79 3.63-76.32-.39-116.57ZM670 581.71h-53.78V451c0-27.51-11.56-41.53-35.1-41.53-25.85 0-38.8 16.6-38.8 49.39v71.52h-53.51v-71.51c0-32.79-13-49.39-38.84-49.39-23.37 0-35.06 14-35.1 41.55v130.68h-53.74V447.08c0-27.533 7.084-49.39 21.25-65.57C397 365.32 416.18 357 440 357c27.55 0 48.38 10.51 62.25 31.48l13.41 22.28L529 388.52c13.87-21 34.68-31.48 62.21-31.48 23.75 0 42.94 8.3 57.59 24.46 14.187 16.18 21.277 38.037 21.27 65.57L670 581.71Z"/>
   </g>
   <defs>
      <clipPath id="a">
         <path fill="#fff" d="M0 0h1024v1024H0z"/>
      </clipPath>
   </defs>
</svg>
